X: 30
T: Pollonesse #30
M: 3/4
L: 1/16
K: D
Q:120
d4|defd DEFG A2d2|cdec ABcd e2g2|f2df afdf afdf|gece gece aece|
d2Bd fdBd ecAc|dBGB A4G4::a4|cBAG A2E2 C2A,2|gfga b2g2 f2e2|
dcde d2A2 F2D2|d2cd e2de f2ed|efge (gfed) c2BA|D2CD E2DE F2ED|
EFGE GFED C2A,2|DEFG ABcd e2g2|fece d4D4:|
